X: 43501
T: Yeoman's
R: reel
M: 4/4
K: Amixolydian
eA ~A2 e2 dB|BG G2 Bcdg|eA A2 e2 dB|BGdB A2 A2:|
dcde g2 ga|bgaf ge d2|eaab a2 a2|gaba ge e2|
dcde g2 ga|bgaf ge d2|eaag e2 dB|BGdB A2 A2||

